;FLAVOR:Marlin
;TIME:4282
;Filament used: 0.980491m
;Layer height: 0.06
;Generated with Cura_SteamEngine 3.1.0
M190 S60
M104 S200
M109 S200
M82 ; absolute extrusion mode
G28 ;Home
G1 Z15.0 F6000 ;Move the platform down 15mm
;Prime the extruder
G92 E0
G1 F200 E3
G92 E0
;LAYER_COUNT:75
;LAYER:0
M107
M204 S5000
M205 X30 Y30
G0 F3600 X123.54 Y132.747 Z0.2
M204 S500
M205 X20 Y20
;TYPE:SKIRT
G1 F1800 X123.994 Y132.398 E0.01905
G1 X125.134 Y131.603 E0.06527
G1 X125.743 Y131.228 E0.08906
G1 X126.262 Y130.975 E0.10826
G1 X127.543 Y130.423 E0.15466
G1 X128.215 Y130.178 E0.17845
G1 X128.768 Y130.036 E0.19744
G1 X130.119 Y129.754 E0.24334
G1 X130.827 Y129.647 E0.26715
G1 X131.365 Y129.619 E0.28507
G1 X132.599 Y129.607 E0.32612
G1 X133.526 Y129.666 E0.35701
G1 X139.977 Y130.546 E0.57356
G1 X145.259 Y130.963 E0.74979
G1 X150.544 Y131.081 E0.92561
G1 X155.829 Y130.9 E1.10149
G1 X161.145 Y130.415 E1.27904
G1 X166.243 Y129.686 E1.45032
G1 X166.914 Y129.625 E1.47273
G1 X167.841 Y129.591 E1.50359
G1 X168.557 Y129.605 E1.52741
G1 X168.925 Y129.644 E1.53971
G1 X170.307 Y129.829 E1.58609
G1 X171.01 Y129.963 E1.60989
G1 X171.477 Y130.099 E1.62607
G1 X172.593 Y130.47 E1.66519
G1 X173.258 Y130.733 E1.68897
G1 X173.679 Y130.946 E1.70466
G1 X174.885 Y131.615 E1.75053
G1 X175.49 Y131.997 E1.77433
G1 X175.947 Y132.354 E1.79362
G1 X177.009 Y133.265 E1.84016
G1 X177.525 Y133.761 E1.86396
G1 X177.771 Y134.041 E1.87636
G1 X178.359 Y134.751 E1.90702
G1 X178.926 Y135.554 E1.93971
G1 X179.537 Y136.578 E1.97938
G1 X179.925 Y137.339 E2.00779
G1 X180.183 Y137.942 E2.0296
G1 X180.486 Y138.824 E2.06062
G1 X180.831 Y140.129 E2.10551
G1 X181.009 Y141.092 E2.13809
G1 X181.085 Y141.811 E2.16213
G1 X181.116 Y142.711 E2.19209
G1 X180.905 Y148.651 E2.38978
G1 X180.983 Y154.049 E2.56933
G1 X181.116 Y157.209 E2.67453
G1 X181.106 Y157.924 E2.69831
G1 X181.05 Y158.436 E2.71544
G1 X180.84 Y159.824 E2.76213
G1 X180.694 Y160.525 E2.78595
G1 X180.512 Y161.094 E2.80582
G1 X180.029 Y162.395 E2.85197
G1 X179.743 Y163.051 E2.87578
G1 X179.411 Y163.631 E2.898
G1 X178.545 Y164.977 E2.95124
G1 X178.125 Y165.556 E2.97503
G1 X177.737 Y165.99 E2.99439
G1 X176.918 Y166.827 E3.03334
G1 X176.39 Y167.31 E3.05714
G1 X176.057 Y167.564 E3.07107
G1 X175.077 Y168.262 E3.11109
G1 X174.201 Y168.786 E3.14504
G1 X173.204 Y169.279 E3.18203
G1 X172.399 Y169.611 E3.21099
G1 X171.742 Y169.831 E3.23404
G1 X170.918 Y170.047 E3.26237
G1 X169.794 Y170.263 E3.30044
G1 X168.821 Y170.374 E3.33301
G1 X167.868 Y170.409 E3.36473
G1 X166.876 Y170.368 E3.39775
G1 X163.661 Y169.985 E3.50544
G1 X158.306 Y169.521 E3.68421
G1 X152.968 Y169.359 E3.86184
G1 X143.112 Y169.448 E4.18966
G1 X137.812 Y169.825 E4.36639
G1 X133.351 Y170.355 E4.5158
G1 X132.374 Y170.396 E4.54833
G1 X130.993 Y170.348 E4.59429
G1 X130.28 Y170.283 E4.6181
G1 X129.837 Y170.202 E4.63308
G1 X128.726 Y169.957 E4.67092
G1 X128.037 Y169.764 E4.69472
G1 X127.652 Y169.619 E4.7084
G1 X126.526 Y169.152 E4.74895
G1 X125.882 Y168.841 E4.77273
G1 X125.411 Y168.554 E4.79108
G1 X124.097 Y167.672 E4.84371
G1 X123.526 Y167.241 E4.86751
G1 X123.026 Y166.769 E4.89038
G1 X122.074 Y165.768 E4.93632
G1 X121.611 Y165.223 E4.96011
G1 X121.225 Y164.652 E4.98303
G1 X120.388 Y163.258 E5.03711
G1 X120.055 Y162.625 E5.0609
G1 X119.912 Y162.288 E5.07308
G1 X119.662 Y161.647 E5.09596
G1 X119.41 Y160.848 E5.12383
G1 X119.136 Y159.732 E5.16205
G1 X119.004 Y159.029 E5.18584
G1 X118.955 Y158.428 E5.20589
G1 X118.895 Y156.699 E5.26343
G1 X118.896 Y156.217 E5.27947
G1 X119.093 Y151.357 E5.44124
G1 X119.016 Y145.976 E5.62023
G1 X118.882 Y142.786 E5.72643
G1 X118.892 Y142.071 E5.75021
G1 X118.949 Y141.551 E5.76761
G1 X119.161 Y140.162 E5.81434
G1 X119.309 Y139.462 E5.83814
G1 X119.522 Y138.812 E5.86089
G1 X120.097 Y137.331 E5.91373
G1 X120.393 Y136.679 E5.93755
G1 X120.684 Y136.18 E5.95676
G1 X121.335 Y135.17 E5.99673
G1 X121.755 Y134.591 E6.02052
G1 X122.077 Y134.225 E6.03673
G1 X123.018 Y133.236 E6.08213
G1 X123.54 Y132.747 E6.10592
M204 S5000
M205 X30 Y30
G0 F3600 X123.814 Y133.039
M204 S500
M205 X20 Y20
G1 F1800 X124.223 Y132.727 E6.12303
G1 X125.363 Y131.932 E6.16926
G1 X125.953 Y131.569 E6.1923
G1 X126.421 Y131.343 E6.20959
G1 X127.702 Y130.791 E6.25598
G1 X128.352 Y130.554 E6.27899
G1 X128.85 Y130.428 E6.29608
G1 X130.201 Y130.146 E6.34198
G1 X130.886 Y130.043 E6.36502
G1 X131.369 Y130.019 E6.3811
G1 X132.603 Y130.007 E6.42215
G1 X133.472 Y130.062 E6.45111
G1 X139.943 Y130.945 E6.66833
G1 X145.219 Y131.361 E6.84435
G1 X150.567 Y131.481 E7.02227
G1 X155.861 Y131.299 E7.19846
G1 X161.159 Y130.816 E7.3754
G1 X166.299 Y130.081 E7.5481
G1 X166.929 Y130.025 E7.56913
G1 X167.856 Y129.991 E7.59999
G1 X168.872 Y130.04 E7.63382
G1 X170.254 Y130.225 E7.68019
G1 X170.934 Y130.356 E7.70323
G1 X171.351 Y130.478 E7.71768
G1 X172.467 Y130.849 E7.75679
G1 X173.11 Y131.105 E7.77981
G1 X173.485 Y131.296 E7.79381
G1 X174.691 Y131.965 E7.83968
G1 X175.276 Y132.336 E7.86272
G1 X175.687 Y132.658 E7.88008
G1 X176.749 Y133.569 E7.92662
G1 X177.463 Y134.296 E7.96051
G1 X178.051 Y135.006 E7.99117
G1 X178.582 Y135.759 E8.02182
G1 X179.193 Y136.783 E8.06148
G1 X179.557 Y137.497 E8.08814
G1 X179.815 Y138.1 E8.10995
G1 X180.1 Y138.926 E8.13901
G1 X180.445 Y140.231 E8.18391
G1 X180.611 Y141.134 E8.21445
G1 X180.687 Y141.853 E8.23849
G1 X180.716 Y142.697 E8.26658
G1 X180.505 Y148.643 E8.46447
G1 X180.582 Y154.036 E8.64386
G1 X180.717 Y157.226 E8.75006
G1 X180.706 Y157.919 E8.77311
G1 X180.654 Y158.377 E8.78844
G1 X180.444 Y159.765 E8.83513
G1 X180.302 Y160.442 E8.85814
G1 X180.137 Y160.955 E8.87606
G1 X179.654 Y162.256 E8.92222
G1 X179.376 Y162.89 E8.94524
G1 X179.075 Y163.414 E8.96534
G1 X178.209 Y164.76 E9.01857
G1 X177.801 Y165.32 E9.04162
G1 X177.452 Y165.71 E9.05903
G1 X176.633 Y166.547 E9.09798
G1 X176.12 Y167.013 E9.12103
G1 X175.825 Y167.238 E9.13337
G1 X174.845 Y167.936 E9.17338
G1 X174.024 Y168.427 E9.2052
G1 X173.027 Y168.92 E9.24219
G1 X172.272 Y169.231 E9.26935
G1 X171.615 Y169.451 E9.2924
G1 X170.842 Y169.654 E9.31898
G1 X169.718 Y169.87 E9.35705
G1 X168.806 Y169.974 E9.38758
G1 X167.853 Y170.009 E9.4193
G1 X166.924 Y169.971 E9.45022
G1 X163.716 Y169.589 E9.55767
G1 X158.316 Y169.12 E9.73795
G1 X152.977 Y168.959 E9.91561
G1 X143.095 Y169.048 E10.2443
G1 X137.78 Y169.426 E10.42152
G1 X133.304 Y169.958 E10.57144
G1 X132.388 Y169.996 E10.60194
G1 X131.007 Y169.948 E10.6479
G1 X130.317 Y169.884 E10.67094
G1 X129.923 Y169.811 E10.68427
G1 X128.812 Y169.566 E10.72211
G1 X128.145 Y169.378 E10.74516
G1 X127.805 Y169.249 E10.75726
G1 X126.679 Y168.782 E10.7978
G1 X126.056 Y168.48 E10.82083
G1 X125.634 Y168.222 E10.83728
G1 X124.32 Y167.34 E10.88991
G1 X123.768 Y166.921 E10.91296
G1 X123.316 Y166.493 E10.93367
G1 X122.364 Y165.492 E10.97961
G1 X121.917 Y164.963 E11.00265
G1 X121.568 Y164.446 E11.0234
G1 X120.731 Y163.052 E11.07748
G1 X120.285 Y162.143 E11.11115
G1 X120.035 Y161.502 E11.13404
G1 X119.798 Y160.753 E11.16017
G1 X119.524 Y159.637 E11.19839
G1 X119.398 Y158.956 E11.22142
G1 X119.355 Y158.414 E11.2395
G1 X119.295 Y156.685 E11.29705
G1 X119.296 Y156.234 E11.31205
G1 X119.494 Y151.368 E11.47402
G1 X119.417 Y145.99 E11.65292
G1 X119.281 Y142.769 E11.76014
G1 X119.292 Y142.077 E11.78316
G1 X119.345 Y141.612 E11.79873
G1 X119.557 Y140.223 E11.84546
G1 X119.701 Y139.545 E11.86851
G1 X119.895 Y138.956 E11.88914
G1 X120.47 Y137.475 E11.94198
G1 X120.757 Y136.845 E11.96501
G1 X121.02 Y136.396 E11.98231
G1 X121.671 Y135.386 E12.02228
G1 X122.079 Y134.827 E12.0453
G1 X122.367 Y134.501 E12.05976
G1 X123.308 Y133.512 E12.10517
G1 X123.814 Y133.039 E12.12821
M204 S5000
M205 X30 Y30
G0 F3600 X124.087 Y133.332
M204 S500
M205 X20 Y20
G1 F1800 X124.452 Y133.055 E12.14345
G1 X125.592 Y132.26 E12.18967
G1 X126.162 Y131.91 E12.21192
G1 X126.579 Y131.71 E12.2273
G1 X127.86 Y131.158 E12.2737
G1 X128.489 Y130.931 E12.29594
G1 X128.932 Y130.819 E12.31113
G1 X130.283 Y130.537 E12.35704
G1 X130.945 Y130.44 E12.37929
G1 X131.373 Y130.419 E12.39354
G1 X132.607 Y130.407 E12.43459
G1 X133.418 Y130.458 E12.46162
G1 X139.893 Y131.342 E12.67897
G1 X145.215 Y131.762 E12.85653
G1 X150.554 Y131.881 E13.03415
G1 X155.892 Y131.697 E13.2118
G1 X161.214 Y131.213 E13.38954
G1 X166.356 Y130.477 E13.56231
G1 X166.944 Y130.425 E13.58194
G1 X167.871 Y130.391 E13.6128
G1 X168.819 Y130.437 E13.64436
G1 X170.201 Y130.622 E13.69074
G1 X170.858 Y130.75 E13.713
G1 X171.225 Y130.858 E13.72573
G1 X172.341 Y131.229 E13.76484
G1 X172.962 Y131.478 E13.78709
G1 X173.29 Y131.646 E13.79935
G1 X174.496 Y132.315 E13.84522
G1 X175.061 Y132.674 E13.86749
G1 X175.426 Y132.962 E13.88295
G1 X176.488 Y133.873 E13.92949
G1 X177.155 Y134.551 E13.96112
G1 X177.743 Y135.261 E13.99178
G1 X178.239 Y135.964 E14.0204
G1 X178.85 Y136.988 E14.06006
G1 X179.19 Y137.654 E14.08493
G1 X179.448 Y138.257 E14.10674
G1 X179.713 Y139.029 E14.13389
G1 X180.058 Y140.334 E14.17879
G1 X180.213 Y141.176 E14.20726
G1 X180.289 Y141.895 E14.23131
G1 X180.316 Y142.682 E14.2575
G1 X180.105 Y148.634 E14.45559
G1 X180.183 Y154.058 E14.63601
G1 X180.317 Y157.243 E14.74204
G1 X180.305 Y157.912 E14.76429
G1 X180.259 Y158.317 E14.77785
G1 X180.049 Y159.705 E14.82454
G1 X179.91 Y160.359 E14.84678
G1 X179.762 Y160.816 E14.86276
G1 X179.279 Y162.117 E14.90891
G1 X179.009 Y162.729 E14.93116
G1 X178.738 Y163.198 E14.94918
G1 X177.872 Y164.544 E15.00241
G1 X177.478 Y165.084 E15.02464
G1 X177.166 Y165.431 E15.04016
G1 X176.347 Y166.268 E15.07911
G1 X175.593 Y166.912 E15.11209
G1 X174.613 Y167.61 E15.15211
G1 X173.846 Y168.069 E15.18184
G1 X172.849 Y168.562 E15.21883
G1 X172.145 Y168.852 E15.24416
G1 X171.488 Y169.072 E15.2672
G1 X170.767 Y169.261 E15.29199
G1 X169.643 Y169.477 E15.33006
G1 X168.792 Y169.574 E15.35855
G1 X167.839 Y169.609 E15.39027
G1 X166.971 Y169.574 E15.41916
G1 X163.733 Y169.188 E15.52762
G1 X158.346 Y168.721 E15.70746
G1 X152.986 Y168.559 E15.88582
G1 X143.08 Y168.648 E16.21531
G1 X137.746 Y169.028 E16.39317
G1 X133.257 Y169.561 E16.54352
G1 X132.401 Y169.597 E16.57202
G1 X131.02 Y169.549 E16.61798
G1 X130.354 Y169.485 E16.64023
G1 X130.009 Y169.421 E16.6519
G1 X128.898 Y169.176 E16.68974
G1 X127.959 Y168.88 E16.72249
G1 X126.833 Y168.413 E16.76303
G1 X126.231 Y168.12 E16.7853
G1 X125.857 Y167.89 E16.7999
G1 X124.543 Y167.008 E16.85254
G1 X124.011 Y166.602 E16.8748
G1 X123.606 Y166.217 E16.89338
G1 X122.654 Y165.216 E16.93933
G1 X122.223 Y164.705 E16.96156
G1 X121.911 Y164.24 E16.98019
G1 X121.074 Y162.846 E17.03427
G1 X120.658 Y161.998 E17.06568
G1 X120.408 Y161.357 E17.08857
G1 X120.187 Y160.657 E17.11298
G1 X119.913 Y159.541 E17.1512
G1 X119.792 Y158.883 E17.17345
G1 X119.754 Y158.4 E17.18957
G1 X119.694 Y156.671 E17.24711
G1 X119.696 Y156.25 E17.26111
G1 X119.894 Y151.378 E17.42329
G1 X119.816 Y145.967 E17.60328
G1 X119.681 Y142.752 E17.7103
G1 X119.693 Y142.084 E17.73253
G1 X119.74 Y141.672 E17.74632
G1 X119.952 Y140.283 E17.79305
G1 X120.092 Y139.629 E17.8153
G1 X120.268 Y139.101 E17.83381
G1 X120.843 Y137.62 E17.88665
G1 X121.122 Y137.012 E17.9089
G1 X121.356 Y136.613 E17.92428
G1 X122.007 Y135.603 E17.96425
G1 X122.402 Y135.063 E17.9865
G1 X122.657 Y134.777 E17.99925
G1 X123.598 Y133.788 E18.04465
G1 X124.087 Y133.332 E18.06689
M204 S5000
M205 X30 Y30
G0 F3600 X124.36 Y133.625
M204 S500
M205 X20 Y20
G1 F1800 X124.681 Y133.383 E18.08026
G1 X125.821 Y132.588 E18.12649
G1 X126.371 Y132.252 E18.14792
G1 X126.737 Y132.078 E18.1614
G1 X128.018 Y131.526 E18.20779
G1 X128.625 Y131.308 E18.22925
G1 X129.013 Y131.211 E18.24255
G1 X130.364 Y130.929 E18.28845
G1 X131.003 Y130.836 E18.30993
G1 X131.376 Y130.819 E18.32235
G1 X132.61 Y130.807 E18.36339
G1 X133.364 Y130.855 E18.38852
G1 X139.843 Y131.739 E18.60601
G1 X145.191 Y132.161 E18.78444
G1 X150.559 Y132.281 E18.96302
G1 X155.906 Y132.097 E19.14097
G1 X161.27 Y131.609 E19.32011
G1 X166.413 Y130.873 E19.49291
G1 X166.958 Y130.824 E19.51111
G1 X167.885 Y130.79 E19.54197
G1 X168.766 Y130.833 E19.5713
G1 X170.148 Y131.018 E19.61768
G1 X170.78 Y131.143 E19.63911
G1 X171.098 Y131.238 E19.65015
G1 X172.214 Y131.609 E19.68926
G1 X173.096 Y131.996 E19.7213
G1 X174.302 Y132.665 E19.76717
G1 X174.846 Y133.012 E19.78863
G1 X175.166 Y133.265 E19.80219
G1 X176.228 Y134.176 E19.84873
G1 X176.847 Y134.806 E19.87811
G1 X177.435 Y135.516 E19.90877
G1 X177.895 Y136.169 E19.93534
G1 X178.506 Y137.193 E19.975
G1 X178.822 Y137.811 E19.99808
G1 X179.08 Y138.414 E20.0199
G1 X179.326 Y139.131 E20.04511
G1 X179.671 Y140.436 E20.09
G1 X179.815 Y141.218 E20.11645
G1 X179.891 Y141.937 E20.1405
G1 X179.917 Y142.668 E20.16483
G1 X179.705 Y148.646 E20.36378
G1 X179.783 Y154.081 E20.54457
G1 X179.917 Y157.26 E20.6504
G1 X179.905 Y157.904 E20.67182
G1 X179.863 Y158.257 E20.68364
G1 X179.653 Y159.645 E20.73033
G1 X179.518 Y160.275 E20.75176
G1 X179.387 Y160.677 E20.76583
G1 X178.904 Y161.978 E20.81198
G1 X178.642 Y162.567 E20.83342
G1 X178.402 Y162.982 E20.84937
G1 X177.536 Y164.328 E20.9026
G1 X177.154 Y164.847 E20.92404
G1 X176.88 Y165.151 E20.93765
G1 X176.061 Y165.988 E20.9766
G1 X175.361 Y166.586 E21.00722
G1 X174.381 Y167.284 E21.04724
G1 X173.669 Y167.71 E21.07483
G1 X172.672 Y168.203 E21.11183
G1 X172.018 Y168.473 E21.13536
G1 X171.361 Y168.693 E21.1584
G1 X170.691 Y168.869 E21.18144
G1 X169.567 Y169.085 E21.21951
G1 X168.777 Y169.174 E21.24595
G1 X167.824 Y169.209 E21.27767
G1 X167.018 Y169.177 E21.3045
G1 X163.781 Y168.792 E21.41292
G1 X158.376 Y168.323 E21.59337
G1 X152.969 Y168.159 E21.77329
G1 X143.064 Y168.249 E22.10274
G1 X137.713 Y168.629 E22.28117
G1 X133.21 Y169.164 E22.43199
G1 X132.415 Y169.197 E22.45846
G1 X131.034 Y169.149 E22.50442
G1 X130.095 Y169.03 E22.5359
G1 X128.984 Y168.785 E22.57374
G1 X128.112 Y168.51 E22.60415
G1 X126.986 Y168.043 E22.64469
G1 X126.407 Y167.76 E22.66613
G1 X126.08 Y167.558 E22.67891
G1 X124.766 Y166.676 E22.73155
G1 X124.254 Y166.284 E22.75299
G1 X123.896 Y165.942 E22.76946
G1 X122.944 Y164.941 E22.81541
G1 X122.53 Y164.447 E22.83684
G1 X122.254 Y164.034 E22.85337
G1 X121.417 Y162.64 E22.90745
G1 X121.03 Y161.852 E22.93665
G1 X120.78 Y161.211 E22.95953
G1 X120.575 Y160.562 E22.98217
G1 X120.301 Y159.446 E23.02039
G1 X120.186 Y158.811 E23.04185
G1 X120.154 Y158.386 E23.05603
G1 X120.094 Y156.657 E23.11357
G1 X120.095 Y156.266 E23.12657
G1 X120.294 Y151.37 E23.28955
G1 X120.216 Y145.946 E23.46997
G1 X120.081 Y142.736 E23.57683
G1 X120.093 Y142.091 E23.59829
G1 X120.136 Y141.732 E23.61031
G1 X120.348 Y140.343 E23.65705
G1 X120.484 Y139.713 E23.67848
G1 X120.641 Y139.246 E23.69487
G1 X121.216 Y137.765 E23.74771
G1 X121.486 Y137.18 E23.76914
G1 X121.692 Y136.83 E23.78265
G1 X122.343 Y135.82 E23.82261
G1 X122.725 Y135.301 E23.84405
G1 X122.947 Y135.053 E23.85512
G1 X123.888 Y134.064 E23.90052
G1 X124.36 Y133.625 E23.92196
M204 S5000
M205 X30 Y30
G1 F2400 E18.92196
G0 F3600 X129.82 Y135.676
G0 X130.266 Y136.881
G0 X137.839 Y140.432
G0 X137.926 Y140.385
M204 S500
M205 X20 Y20
;TYPE:WALL-INNER
G1 F2400 E23.92196
G1 F1800 X138.116 Y140.691 E23.93394
G1 X138.358 Y140.977 E23.9464
G1 X138.644 Y141.219 E23.95886
G1 X138.963 Y141.417 E23.97135
G1 X139.312 Y141.561 E23.98391
G1 X139.675 Y141.647 E23.99631
G1 X140.025 Y141.676 E24.008
G1 X159.979 Y141.677 E24.67167
G1 X160.328 Y141.647 E24.68332
G1 X160.691 Y141.561 E24.69573
G1 X161.039 Y141.417 E24.70825
G1 X161.359 Y141.219 E24.72077
G1 X161.644 Y140.977 E24.7332
G1 X161.888 Y140.691 E24.74571
G1 X162.076 Y140.384 E24.75768
G1 X162.21 Y140.102 E24.76807
G1 X162.528 Y139.529 E24.78986
G1 X162.883 Y139.018 E24.81056
G1 X163.305 Y138.527 E24.83209
G1 X163.768 Y138.087 E24.85333
G1 X164.264 Y137.703 E24.8742
